X:93
T:Gander in the Pratie Hole
R:Jig
M:6/8
L:1/8
K:D
E|:FAD FAD | GFG EFG | FAD FAD | GED D2 E|
 | FAD FAD | GFG EFG| fed ecA |1GED D2 E :|2GED D2 d |
 |:Add ded| =cAB =cAG| Add ded | =cAB c2 BA|
 | Add ded| =cAB =cde|fed ecA|1GED D2 d :|2GED D2 E|
